images_sukapura_svg/cmd/lc_insertmath.svg

<svg viewBox="0 0 24 24" xmlns="http://www.w3.org/2000/svg" xmlns:xlink="http://www.w3.org/1999/xlink"><linearGradient id="a" gradientUnits="userSpaceOnUse" x1="-17.972656" x2="-17.972656" y1="21.152344" y2="1.152344"><stop offset="0" stop-color="#0040dd"/><stop offset="1" stop-color="#0a84ff"/></linearGradient><path d="m22.003221 5.0135682h-3.173277v12.7318048q0 1.431844.503081 1.973623.50308.52243 1.373796.52243.483731 0 .948113-.135445.464382-.135445.832018-.367636l.851367 2.57345q-.890065.599827-1.741432.812669-.851367.212841-1.896227.212841-2.30256 0-3.502213-1.373796-1.199654-1.373797-1.199654-4.430978v-12.5189628h-6.8302839v17.9174028h-3.8118017v-17.9174028h-2.4573544v-3.0184825h20.103868z" fill="url(#a)"/></svg>

<?xml version="1.0" encoding="UTF-8" standalone="no"?>
<svg
   xmlns:dc="http://purl.org/dc/elements/1.1/"
   xmlns:cc="http://creativecommons.org/ns#"
   xmlns:rdf="http://www.w3.org/1999/02/22-rdf-syntax-ns#"
   xmlns:svg="http://www.w3.org/2000/svg"
   xmlns="http://www.w3.org/2000/svg"
   xmlns:xlink="http://www.w3.org/1999/xlink"
   xmlns:sodipodi="http://sodipodi.sourceforge.net/DTD/sodipodi-0.dtd"
   xmlns:inkscape="http://www.inkscape.org/namespaces/inkscape"
   viewBox="0 0 24 24"
   version="1.1"
   id="svg1558"
   sodipodi:docname="lc_insertmath.svg"
   inkscape:export-filename="D:\Rizmut\libreoffice-style-sukapura-master\images_sukapura\cmd\lc_insertmath.png"
   inkscape:export-xdpi="213"
   inkscape:export-ydpi="213"
   inkscape:version="0.92.3 (2405546, 2018-03-11)">
  <metadata
     id="metadata1564">
    <rdf:RDF>
      <cc:Work
         rdf:about="">
        <dc:format>image/svg+xml</dc:format>
        <dc:type
           rdf:resource="http://purl.org/dc/dcmitype/StillImage" />
      </cc:Work>
    </rdf:RDF>
  </metadata>
  <defs
     id="defs1562">
    <linearGradient
       inkscape:collect="always"
       xlink:href="#a"
       id="linearGradient2121"
       x1="14"
       y1="22"
       x2="14"
       y2="2"
       gradientUnits="userSpaceOnUse" />
  </defs>
  <sodipodi:namedview
     pagecolor="#ffffff"
     bordercolor="#666666"
     borderopacity="1"
     objecttolerance="10"
     gridtolerance="10"
     guidetolerance="10"
     inkscape:pageopacity="0"
     inkscape:pageshadow="2"
     inkscape:window-width="1366"
     inkscape:window-height="716"
     id="namedview1560"
     showgrid="true"
     inkscape:zoom="16"
     inkscape:cx="11.682599"
     inkscape:cy="15.322062"
     inkscape:window-x="-8"
     inkscape:window-y="-8"
     inkscape:window-maximized="1"
     inkscape:current-layer="svg1558">
    <inkscape:grid
       type="xygrid"
       id="grid2109" />
  </sodipodi:namedview>
  <linearGradient
     id="a"
     gradientUnits="userSpaceOnUse"
     x1="-15.79661"
     x2="-15.423729"
     y1="23.084747"
     y2="3.661017"
     gradientTransform="translate(-31.972656,-0.8476562)">
    <stop
       offset="0"
       stop-color="#0040dd"
       id="stop1551" />
    <stop
       offset="1"
       stop-color="#0a84ff"
       id="stop1553" />
  </linearGradient>
  <g
     aria-label="π"
     style="font-style:normal;font-weight:normal;font-size:39.6272583px;line-height:1.25;font-family:sans-serif;letter-spacing:0px;word-spacing:0px;fill:url(#linearGradient2121);fill-opacity:1;stroke:none;stroke-width:0.99068141"
     id="text2113">
    <path
       d="M 22.003221,5.0135682 H 18.829944 V 17.745373 q 0,1.431844 0.503081,1.973623 0.50308,0.52243 1.373796,0.52243 0.483731,0 0.948113,-0.135445 0.464382,-0.135445 0.832018,-0.367636 l 0.851367,2.57345 q -0.890065,0.599827 -1.741432,0.812669 -0.851367,0.212841 -1.896227,0.212841 -2.30256,0 -3.502213,-1.373796 -1.199654,-1.373797 -1.199654,-4.430978 V 5.0135682 H 8.1685091 V 22.930971 H 4.3567074 V 5.0135682 H 1.899353 V 1.9950857 h 20.103868 z"
       style="font-style:normal;font-variant:normal;font-weight:normal;font-stretch:normal;font-family:'Roboto Slab';-inkscape-font-specification:'Roboto Slab';fill:url(#linearGradient2121);fill-opacity:1;stroke-width:0.99068141"
       id="path3638" />
  </g>
</svg>
